svgs/solid/align-slash.svg

<svg xmlns="http://www.w3.org/2000/svg" viewBox="0 0 640 512"><!-- Font Awesome Pro 6.0.0-alpha2 by @fontawesome - https://fontawesome.com License - https://fontawesome.com/license (Commercial License) --><path d="M127.997 416.002C110.325 416.002 95.997 430.328 95.997 448.002C95.997 465.674 110.325 480 127.997 480H489.077L407.423 416.002H127.997ZM127.997 352.002H325.767L244.113 288.004H127.997C110.325 288.004 95.997 302.33 95.997 320.004C95.997 337.676 110.325 352.002 127.997 352.002ZM630.81 469.102L481.405 352.002H495.999C496.003 352.002 496.005 352 496.009 352H511.999C529.673 352 543.999 337.674 543.999 320S529.673 288 511.999 288H399.745L318.097 224.004H495.999C496.007 224.004 496.011 224 496.019 224H511.999C529.673 224 543.999 209.674 543.999 192S529.673 160 511.999 160H236.433L154.779 96H511.999C529.673 96 543.999 81.674 543.999 64S529.673 32 511.999 32H127.999C114.634 32 103.239 40.215 98.45 51.852L38.814 5.109C34.407 1.672 29.189 0 24.032 0C16.907 0 9.845 3.156 5.126 9.188C-3.061 19.625 -1.249 34.719 9.189 42.891L601.185 506.883C611.685 515.086 626.747 513.211 634.872 502.805C643.06 492.367 641.247 477.273 630.81 469.102ZM127.999 224H159.999V222.092L101.003 175.852C98.111 180.662 95.999 185.979 95.999 192C95.999 209.674 110.325 224 127.999 224Z"/></svg>

<svg xmlns="http://www.w3.org/2000/svg" viewBox="0 0 640 512"><!--! Font Awesome Pro 6.3.0 by @fontawesome - https://fontawesome.com License - https://fontawesome.com/license (Commercial License) Copyright 2023 Fonticons, Inc. --><path d="M38.8 5.1C28.4-3.1 13.3-1.2 5.1 9.2S-1.2 34.7 9.2 42.9l592 464c10.4 8.2 25.5 6.3 33.7-4.1s6.3-25.5-4.1-33.7L481.4 352H512c17.7 0 32-14.3 32-32s-14.3-32-32-32H399.7l-81.7-64H512c17.7 0 32-14.3 32-32s-14.3-32-32-32H236.4L154.8 96H512c17.7 0 32-14.3 32-32s-14.3-32-32-32H128c-13.4 0-24.8 8.2-29.6 19.8L38.8 5.1zM324.9 352l-81.2-64H128c-17.7 0-32 14.3-32 32s14.3 32 32 32H324.9zM162.5 224l-61.8-48.7c-3 4.9-4.7 10.6-4.7 16.7c0 17.7 14.3 32 32 32h34.5zM487.4 480l-81.2-64H128c-17.7 0-32 14.3-32 32s14.3 32 32 32H487.4z"/></svg>
